outputs/icons/general/app_edit_round.svg

<svg xmlns="http://www.w3.org/2000/svg" width="1200" height="1200" fill="none"><path fill="#000" d="M700 212.5c0-6.904-5.595-12.5-12.5-12.5h-175c-6.905 0-12.5 5.596-12.5 12.5v175c0 6.904 5.595 12.5 12.5 12.5h175c6.905 0 12.5-5.596 12.5-12.5zM400 812.5c0-6.905-5.596-12.5-12.5-12.5h-175c-6.904 0-12.5 5.595-12.5 12.5v175c0 6.905 5.596 12.5 12.5 12.5h175c6.904 0 12.5-5.595 12.5-12.5zM400 512.5c0-6.905-5.596-12.5-12.5-12.5h-175c-6.904 0-12.5 5.595-12.5 12.5v175c0 6.905 5.596 12.5 12.5 12.5h175c6.904 0 12.5-5.595 12.5-12.5zM400 212.5c0-6.904-5.596-12.5-12.5-12.5h-175c-6.904 0-12.5 5.596-12.5 12.5v175c0 6.904 5.596 12.5 12.5 12.5h175c6.904 0 12.5-5.596 12.5-12.5zM700 621V512.5c0-6.905-5.595-12.5-12.5-12.5h-175c-6.905 0-12.5 5.595-12.5 12.5v175c0 6.905 5.595 12.5 12.5 12.5H621zM1044 564.5 985.5 506c-8-8-21-8-29 0l-44 44 87.5 87.5 44-44c8-8 8-21 0-29M550 912.5v87.5h87.5L971 666.5 883.5 579zM1000 212.5c0-6.904-5.595-12.5-12.5-12.5h-175c-6.905 0-12.5 5.596-12.5 12.5v175c0 6.904 5.595 12.5 12.5 12.5h175c6.905 0 12.5-5.596 12.5-12.5z"/></svg>

<svg width="1200" height="1200" viewBox="0 0 1200 1200" fill="none" xmlns="http://www.w3.org/2000/svg"><path d="M700 212.5C700 205.596 694.405 200 687.5 200H512.5C505.595 200 500 205.596 500 212.5V387.5C500 394.404 505.595 400 512.5 400H687.5C694.405 400 700 394.404 700 387.5V212.5Z" fill="#1D1E23"/><path d="M400 812.5C400 805.595 394.404 800 387.5 800H212.5C205.596 800 200 805.595 200 812.5V987.5C200 994.405 205.596 1000 212.5 1000H387.5C394.404 1000 400 994.405 400 987.5V812.5Z" fill="#1D1E23"/><path d="M400 512.5C400 505.595 394.404 500 387.5 500H212.5C205.596 500 200 505.595 200 512.5V687.5C200 694.405 205.596 700 212.5 700H387.5C394.404 700 400 694.405 400 687.5V512.5Z" fill="#1D1E23"/><path d="M400 212.5C400 205.596 394.404 200 387.5 200H212.5C205.596 200 200 205.596 200 212.5V387.5C200 394.404 205.596 400 212.5 400H387.5C394.404 400 400 394.404 400 387.5V212.5Z" fill="#1D1E23"/><path d="M700 621V512.5C700 505.595 694.405 500 687.5 500H512.5C505.595 500 500 505.595 500 512.5V687.5C500 694.405 505.595 700 512.5 700H621L700 621Z" fill="#1D1E23"/><path d="M1044 564.5L985.5 506C977.5 498 964.5 498 956.5 506L912.5 550L1000 637.5L1044 593.5C1052 585.5 1052 572.5 1044 564.5Z" fill="#1D1E23"/><path d="M550 912.5V1000H637.5L971 666.5L883.5 579L550 912.5Z" fill="#1D1E23"/><path d="M1000 212.5C1000 205.596 994.405 200 987.5 200H812.5C805.595 200 800 205.596 800 212.5V387.5C800 394.404 805.595 400 812.5 400H987.5C994.405 400 1000 394.404 1000 387.5V212.5Z" fill="#1D1E23"/></svg>
